!!!SOCIAL_FUNCTION:	dream songs
!!!PDT:	1913
!!!OTL: No_145_Into_the_Several_Heavens.krn
!!!REG: Great_Lakes
!!!LANG: Non-Tone
!!!LING_GROUP: Algonquin
**kern	**kern
*staff2	*staff1
=1-	=1-
*clefF4	*clefF4
*k[b-e-a-]	*k[b-e-a-]
*M3/4	*M3/4
12GG^/	4c\
12r	.
12GG/	.
12GG^/	4c\
12r	.
12GG/	.
12GG^/	4B-\
12r	.
12GG/	.
=2	=2
2.r	2B-\
.	4G\
=3	=3
2.r	4B-\
.	16B-\LK
.	8.G\J
.	8.E-\L
.	16E-\Jk
=4	=4
2.r	2.E-\
=5	=5
2.r	4E-\
.	4G\
.	8.E-\L
.	16E-\Jk
=6	=6
2.r	2E-\
.	4C/
=7	=7
2.r	4E-\
.	16E-/LK
.	8.C/J
.	8.BB-/L
.	16BB-/Jk
=8	=8
2.r	2.BB-/
=9	=9
2.r	4BB-/
.	4C/
.	8.BB-/L
.	16BB-/Jk
=10	=10
2.r	2BB-/
.	4GG/
=11	=11
2.r	8.BB-/L
.	16C/Jk
.	4BB-/
.	4GG/
=12	=12
2.r	8.EE-/L
.	16EE-/Jk
.	2EE-/
=13||	=13||
*M2/4	*M2/4
2r	12E-\L
.	12E-\
.	12E-\J
.	8.G\L
.	16G\Jk
=14||	=14||
*M3/4	*M3/4
2.r	2E-\
.	8.C/L
.	16C/Jk
=15	=15
2.r	4E-\
.	8.E-/L
.	16C/Jk
.	4BB-/
=16	=16
2.r	2.BB-/
=17	=17
2.r	8BB-/L
.	8BB-/J
.	4C/
.	8.BB-/L
.	16BB-/Jk
=18	=18
2.r	2BB-/
.	4GG/
=19	=19
2.r	8.BB-/L
.	16C/Jk
.	4BB-/
.	4GG/
=20	=20
2.r	8.EE-/L
.	16EE-/Jk
.	2EE-/
==	==
*-	*-
